X: 1
T: JOE TANZY'S -- REEL
B: Ryan's Mammoth Collection of Fiddle Tunes
R: reel
M: C|
L: 1/8
Z: Contributed 20010905144529 by John Chambers jmchambers:rcn.net
K: D
uG \
| (3FED AF BGAF | EG=cG ECCE | (3FED AF BGAF | Dddc dD DG |
| (3FED AF BGAF | EG=cG ECCE | (3FED AF BGAF | Dddc dD D :|
|: g \
| fada fdad | eg=cg ecgc | fada fdad | (3Bcd AG FD Dg |
| fada fdad | eg=cg ecgc | afge fdec | dBAG FDD :|
